!!!COM: Palestrina, Giovanni Perluigi da
!!!OPR: Sicut lilium inter spinas
!!!OTL: Benedictus
**kern	**kern	**kern	**kern
*Itenor	*Itenor	*Icalto	*Icant
!Tenor 2	!Tenor 1	!Altus	!Cantus
*clefGv2	*clefGv2	*clefG2	*clefG2
*k[]	*k[]	*k[]	*k[]
*A:aeo	*A:aeo	*A:aeo	*A:aeo
*M4/2	*M4/2	*M4/2	*M4/2
=1	=1	=1	=1
0r	0r	0a	0r
=2	=2	=2	=2
0r	0r	1g#	0ee
.	.	1a	.
=3	=3	=3	=3
0r	0r	1d	1ff
.	.	2r	1ee
.	.	[2a	.
=4	=4	=4	=4
0r	0r	2a]	2a
.	.	1cc	1ee
.	.	4b	[2gg
.	.	4a	.
=5	=5	=5	=5
0r	0r	2g	2gg]
.	.	2a	4ff
.	.	.	4ee
.	.	2b-	2dd
.	.	[2a	2ee
=6	=6	=6	=6
0r	0r	2a]	2ff
.	.	4g	1ee
.	.	4f	.
.	.	2e	.
.	.	2f	4dd
.	.	.	4cc
=7	=7	=7	=7
0r	0e	2g	2b
.	.	1a	1cc
.	.	2g#	[2b
=8	=8	=8	=8
0r	1f	1a	4b]
.	.	.	4a
.	.	.	1a
.	1e	1b	.
.	.	.	2g#
=9	=9	=9	=9
0e	1A	2cc	2a
.	.	1a	2cc
.	1r	.	4b
.	.	.	4a
.	.	2g	4b
.	.	.	4cc
=10	=10	=10	=10
1d	0r	4f	1dd
.	.	4d	.
.	.	1a	.
1e	.	.	1b
.	.	2g	.
=11	=11	=11	=11
2A	1r	2.cc	2a
1A	.	.	2ee
.	.	4b	.
.	2r	2a	2ff
[2c	[2e	4g	[2ee
.	.	4f	.
=12	=12	=12	=12
2c]	2e]	1g	2ee]
4B	1g	.	4dd
4A	.	.	4cc
2G	.	1r	2b
2A	4f	.	2cc
.	4e	.	.
=13	=13	=13	=13
2B	2d	1r	2dd
2c	2e	.	2.cc
2.F	1f	[1a	.
.	.	.	4b
.	.	.	4a
4G	.	.	4b
=14	=14	=14	=14
1A	2.e	1a]	4cc
.	.	.	4dd
.	.	.	2.ee
.	4f	.	.
1G	2.g	1b-	.
.	.	.	4dd
.	.	.	[2dd
.	4f	.	.
=15	=15	=15	=15
1A	1e	1a	2dd]
.	.	.	2cc#
2r	2.f	1d	[1dd
[2d	.	.	.
.	4e	.	.
=16	=16	=16	=16
2d]	1d	2r	1dd]
1f	.	1a	.
.	1A	.	1r
4e	.	[2cc	.
4d	.	.	.
=17	=17	=17	=17
2c	1r	2cc]	0r
2d	.	4b	.
.	.	4a	.
2e	2r	2g	.
[2f	[2d	2a	.
=18	=18	=18	=18
4f]	2d]	4f	1a
4e	.	4g	.
2d	1f	4a	.
.	.	4f	.
2.c	.	1g	[1cc
.	4e	.	.
4B	4d	.	.
=19	=19	=19	=19
2A	2c	2a	2cc]
2B	2d	1g	4b
.	.	.	4a
2c	2e	.	2g
2A	2f	2f	2a
=20	=20	=20	=20
1G	2.g	2e	1b-
.	.	1d	.
.	4f	.	.
1A	1e	.	[1a
.	.	2c#	.
=21	=21	=21	=21
1d	2f#	2d	1a]
.	2f#	2a	.
1r	2.g	2.b	2r
.	.	.	2dd
.	4f#	4a	.
=22	=22	=22	=22
0r	2g	2b	2.ee
.	2.a	2.cc	.
.	.	.	4dd
.	.	.	2ee
.	4g	4b	.
.	4f	4a	[2ff
.	4e	4g	.
=23	=23	=23	=23
1r	2d	2f	2ff]
.	2e	2g	4ee
.	.	.	4dd
2r	2f	1a	2cc
2d	[2a	.	2dd
=24	=24	=24	=24
2.e	2a]	0r	1b
.	4g	.	.
4d	4f	.	.
2e	2g	.	2.cc
[2f	[2a	.	.
.	.	.	4b
=25	=25	=25	=25
2f]	2a]	0r	4cc
.	.	.	4dd
4e	4g	.	2.cc
4d	4f	.	.
2c	2e	.	.
.	.	.	4b
2d	[2f	.	[2a
=26	=26	=26	=26
1B-	4f]	1d	2a]
.	4e	.	.
.	1d	.	2g
1A	.	2.e	[1a
.	4c#	.	.
.	4B	4d	.
=27	=27	=27	=27
1r	2c#	2e	0a]
.	1d	1f	.
1d	.	.	.
.	4c	4e	.
.	4B	4d	.
=28	=28	=28	=28
2.e	0A	2c	1r
.	.	2.cc	.
4d	.	.	.
2e	.	.	1a
.	.	4b	.
2f	.	[2a	.
=29	=29	=29	=29
2d	0r	2a]	2.b
1e	.	4g	.
.	.	4f#	4a
.	.	2g	2b
4A	.	2a	[2cc
4B	.	.	.
=30	=30	=30	=30
4c	0r	4e	2cc]
4d	.	4f	.
1e	.	4g	4b
.	.	4a	4a
.	.	2b	2g
2c	.	[2cc	2g
=31	=31	=31	=31
1f	0r	4cc]	4a
.	.	4b	4b
.	.	1a	4cc
.	.	.	4a
1e	.	.	1b
.	.	2g#	.
=32	=32	=32	=32
1A	1r	2a	1cc#
.	.	1a	.
1f	1d	.	1dd
.	.	[2b	.
=33	=33	=33	=33
2.g	2.e	4b]	0r
.	.	4a	.
.	.	2b	.
4f	4d	.	.
2g	2e	[1cc	.
[2a	[2f	.	.
=34	=34	=34	=34
2a]	2f]	2cc]	0r
4g	4e	2cc	.
4f	4d	.	.
2e	2c	2a	.
2f#	2d	2a	.
=35	=35	=35	=35
2.g	2G	2.b	1dd
.	2g	.	.
4f	.	4a	.
4e	1g	2b	2.ee
4d	.	.	.
4c	.	[2cc	.
4B	.	.	4dd
=36	=36	=36	=36
4A	1c	4cc]	2ee
4G	.	4b	.
2F	.	4a	1ff
.	.	4g	.
1B-	1d	2f	.
.	.	2g	4ee
.	.	.	4dd
=37	=37	=37	=37
1.A	2f	1.a	2cc#
.	4e	.	1dd
.	4d	.	.
.	2e	.	.
2A	2e	2a	2cc#
=38	=38	=38	=38
0d	0f#	0a	0dd
*-	*-	*-	*-
!! Hosanna
**kern	**kern	**kern	**kern	**kern
*Ibass	*Itenor	*Itenor	*Icalto	*Icant
!Bassus	!Tenor 2	!Tenor 1	!Altus	!Cantus
*clefF4	*clefGv2	*clefGv2	*clefG2	*clefG2
*k[]	*k[]	*k[]	*k[]	*k[]
*A:aeo	*A:aeo	*A:aeo	*A:aeo	*A:aeo
*M4/2	*M4/2	*M4/2	*M4/2	*M4/2
=39	=39	=39	=39	=39
0r	0r	0r	1d	1r
.	.	.	4d	2r
.	.	.	4e	.
.	.	.	4f	2a
.	.	.	4g	.
=40	=40	=40	=40	=40
0r	2r	0r	2.a	4a
.	.	.	.	4b
.	2A	.	.	4cc
.	.	.	4b	4dd
.	4A	.	1cc	2.ee
.	4B	.	.	.
.	4c	.	.	.
.	4d	.	.	4ff
=41	=41	=41	=41	=41
0r	2e	0r	2b	2gg
.	2f	.	2a	2cc
.	2d	.	2b	2dd
.	2e	.	[2cc	2cc
=42	=42	=42	=42	=42
0r	1f	0r	4cc]	4a
.	.	.	4b	4b
.	.	.	1a	4cc
.	.	.	.	4a
.	2e	.	.	1b
.	2e	.	2g#	.
=43	=43	=43	=43	=43
2r	4f	1r	4a	[0a
.	4e	.	4g	.
2D	4d	.	4f	.
.	4c#	.	4e	.
4D	1d	2r	1f	.
4E	.	.	.	.
4F	.	2A	.	.
4G	.	.	.	.
=44	=44	=44	=44	=44
2.A	1c	4A	1e	1a]
.	.	4B	.	.
.	.	4c	.	.
4B	.	4d	.	.
2c	1A	2e	1a	1r
2A	.	2f	.	.
=45	=45	=45	=45	=45
2B	1r	2d	0r	2r
2c	.	2e	.	2a
2d	2r	2f	.	4a
.	.	.	.	4b
4c	2a	4e	.	4cc
4B	.	4d	.	4dd
=46	=46	=46	=46	=46
2A	4a	2c	2r	2ee
.	4g	.	.	.
1d	4f	2d	2a	2ff
.	4e	.	.	.
.	2f	2r	1a	2dd
2c#	[2e	2a	.	2ee
=47	=47	=47	=47	=47
1d	2e]	2f	0a	1ff
.	1d	2d	.	.
1A	.	1e	.	1ee
.	2c	.	.	.
=48	=48	=48	=48	=48
0D	2.f	1a	2r	1dd
.	.	.	2d	.
.	4e	.	.	.
.	1d	1a	4d	2.ff
.	.	.	4e	.
.	.	.	4f	.
.	.	.	4g	4ee
=49	=49	=49	=49	=49
0r	2d	2f	2a	2.dd
.	1G	2g	2b-	.
.	.	.	.	4cc
.	.	2b-	2g	4dd
.	.	.	.	4ee
.	2F	2a	2a	2ff
=50	=50	=50	=50	=50
0r	1G	2.g	1b-	2ee
.	.	.	.	1dd
.	.	4f	.	.
.	1A	1e	2a	.
.	.	.	2a	2cc#
=51	=51	=51	=51	=51
2r	2.a	4d	2f	1dd
.	.	4e	.	.
2D	.	4f	4d	.
.	4g	4g	4e	.
4D	1f	[1a	4f	1dd
4E	.	.	4g	.
4F	.	.	4a	.
4G	.	.	4b	.
=52	=52	=52	=52	=52
2A	2e	2a]	2cc	0r
2B-	1d	2f	1b-	.
2G	.	2g	.	.
2A	2c	[2f	[2a	.
=53	=53	=53	=53	=53
1B-	1d	4f]	2a]	1r
.	.	4e	.	.
.	.	1d	2g	.
2A	1e	.	1a	2r
2A	.	2c	.	2a
=54	=54	=54	=54	=54
4F	1A	2f	2r	4a
4G	.	.	.	4b
4A	.	2f	2a	4cc
4B	.	.	.	4dd
2c	2r	2e	2g	2ee
2F	2A	2a	2cc	2ff
=55	=55	=55	=55	=55
2G	2B	4g	2b	2dd
.	.	4f	.	.
2C	2c	4e	2g	2ee
.	.	4d	.	.
2.F	1A	2c	4a	1ff
.	.	.	4b	.
.	.	[2A	[2cc	.
4G	.	.	.	.
=56	=56	=56	=56	=56
1A	1c	4A]	4cc]	[0ee
.	.	4B	4b	.
.	.	4c	1a	.
.	.	4d	.	.
1E	1B	1e	.	.
.	.	.	2g#	.
=57	=57	=57	=57	=57
0A	0A	0c#	0a	0ee]
==	==	==	==	==
*-	*-	*-	*-	*-
!!!CDT: 1525/^1526/-1594/2/2
!!!OCY: Italia
!!!AGN: Mass (Parody)
!!!AST: renaissance, vocal
!!!ASW: Motet 1569 (Palestrina)
!!!PWK: Masses, Book 5
!!!RNB: Cadence finals: D
!!!YOR: Le Opere Complete, v. 15, p. 130
!!!YOO: Rome, Italy: Fratelli Scalera
!!!END: 1992//
!!!EED: John Miller
!!!YEC: Copyright 2000, John Miller
!!!YEN: United States of America
!!!YEM: Rights to all derivative electronic formats reserved.
!!!YEM: Refer to licensing agreement for further details.
!!!YEM: This file must be accompanied by the licensing agreement.
!!!YEM: A copy of the licensing agreement may be found at http://www.music-cog.ohio-state.edu/HumdrumDatabases/Palestrina/license.txt
!!!EMD: converted to Humdrum by Bret Aarden
